X:2674
T:There's a hole in the bucket
C:anon., arr. Frank Nordberg
O:England?
R:Waltz
Z:Transcribed by Frank Nordberg - http://www.musicaviva.com
F:http://abc.musicaviva.com/tunes/england/theres-a-hole-in-the-pno.abc
V:1 Program 1 0 %Piano
V:2 Program 1 0 bass %Piano
M:3/4
L:1/4
K:C
V:1
c/d/|"C"ecG|"F"AcG|"F"AcG|"F"Acc/d/|
w:There's a hole in the buck-et, dear Liz-a, dear Liz-a, There's a
V:2
z|.C,.[G,CE].[G,CE]|.F,.[A,CF].[A,CF]|.F,.[A,CF].[A,CF]|.F,.[A,CF].[A,CF]|
V:1
"C"ecG|"F"AcG|"F"Ac"G7"d|"C"c2|]
w:hole in the buck-et, dear Liz-a, a hole.
V:2
.C,.[G,CE].[G,CE]|.F,.[A,CF].[A,CF]|.F,.[A,CF].[B,DF]|.C,[G,CE]|
W:
W:There's a hole in the bucket, dear Liza, dear Liza,
W:There's a hole in the bucket, dear Liza, a hole.
W:
W:
W:  From Musica Viva - http://www.musicaviva.com
W:  the Internet center for free sheet music downloads.

